X:199
T:St Davids Day. JC.203
T:Welchman's Leek,The, aka. JC.203
R:air
S:John Clare,Poet,Helpstone (1793-1864)
N:Song text exists. See Deacon.
O:England
A:Northamptonshire
Z:vmp.P. Headford
M:6/8
L:1/8
Q:3/8=120
K:D
A|\
Addd2e|fed faA|!
Addd2e|fed e2B|Bee e2d|cdB cA|!
|:A|gfe fed|cBA A2A|gfe fed|cee e2A|!
gfe fad|egd {d}cBA|Addd2A|Add d2:|

